X: 2404
T: Balintore Fisherman, The
R: polka
M: 2/4
K: Dmajor
(3A,/B,/C/|:DA,/D/ F/D/F/B/|AF FA|GE E/F/G/A/|FD D/A,/B,/C|
DA,/D/ F/D/F/B/|AF FA|GE BA|1 D2D/ A,/B,/C/:|2 D2D B||
(3A/B/A/ F/A/ D/A/F/A/|BG/B/ AF/A/|GE/G/ FD/F/|E2 EB|
(3A/B/A/ F/A/ d/A/F/A/|B/A/G/B/ AF/A/|GE BA|D2D B|
(3A/B/A/ F/A/ D/A/F/A/|BG/B/ AF/A/|GE/G/ FD/F/|E/D/C/D/ E/G/F/E/|
DA,/D/ F/D/F/A/|AF FA|GE BA|D2 D2|
K:Gmaj
|:GD/G/ B/G/B/e/|dB Bd|cA A/B/c/d/|BG G/D/E/F/|
GD/G/ B/G/B/e/|dB Bd|cA ed|1 G2G/ D/E/F/:|2 G2 GA||
K:Dmaj
|:(3A/B/A/ F/A/ fA/f/|(3d/e/d/ c/d/ ed/c/|B/A/F/A/ D/A/F/A/|B/A/G/F/ EG|
F/A/d/f/ a/f/d/f/|g/f/e/d/ d/c/B/A/|GE BA|1 D2D B:|2 D2D/ A,/B,/C/||
DA,/D/ F/D/F/B/|AF FA|GE E/F/G/A/|FD D/A,/B,/C/|
DA,/D/ F/D/F/B/|AF FA|GE BA|1 D2D/ A,/B,/C/|2 Dz [FAd]2||

